X:1
T:The Factory Girl (2)
M:6/8
L:1/8
K:F
 c| cAc cAF| dBd dBB| cdc cAF| GFG A2 c/2c/2| FFF FEF| G/2G/2 AB BAA|\
 Bcd cAF| GFE F2||
